build/img/icon-gas.svg

<svg width="24" height="22" viewBox="0 0 24 22" fill="none" xmlns="http://www.w3.org/2000/svg">
<rect x="1.74597" y="0.75" width="10.9495" height="19.9131" rx="1.25" stroke="#48494D" stroke-width="1.5"/>
<mask id="path-2-inside-1" fill="white">
<rect x="3.0968" y="3.0968" width="8.2583" height="7.22601" rx="1"/>
</mask>
<rect x="3.0968" y="3.0968" width="8.2583" height="7.22601" rx="1" stroke="#48494D" stroke-width="3" mask="url(#path-2-inside-1)"/>
<path d="M12.9474 10.834V10.834C14.1305 10.834 15.0896 11.7931 15.0896 12.9763V15.6395C15.0896 16.985 15.6252 19.1298 17.5889 18.9072C19.5527 18.6846 19.9097 16.6819 19.9097 15.255C19.9097 13.8282 19.1956 10.6418 19.3741 7.95073C19.5527 5.25966 21.1593 2.95304 22.409 1.99194" stroke="#48494D" stroke-width="1.5" stroke-linecap="round" stroke-linejoin="round"/>
<rect x="0.497979" y="20.506" width="13.4454" height="0.995959" rx="0.497979" fill="#48494D" stroke="#48494D" stroke-width="0.995959"/>
<path d="M20.4182 5.47778V5.47778C21.3327 5.70145 21.944 6.56319 21.8527 7.50029L21.7677 8.37356C21.6801 9.27332 20.9238 9.9596 20.0198 9.9596V9.9596" stroke="#48494D" stroke-width="1.5"/>
</svg>

<svg width="24" height="22" fill="none" xmlns="http://www.w3.org/2000/svg"><rect x="1.746" y=".75" width="10.95" height="19.913" rx="1.25" stroke="#48494D" stroke-width="1.5"/><mask id="a" fill="#fff"><rect x="3.097" y="3.097" width="8.258" height="7.226" rx="1"/></mask><rect x="3.097" y="3.097" width="8.258" height="7.226" rx="1" stroke="#48494D" stroke-width="3" mask="url(#a)"/><path d="M12.947 10.834v0c1.184 0 2.143.96 2.143 2.142v2.663c0 1.346.535 3.49 2.499 3.268 1.964-.222 2.32-2.225 2.32-3.652s-.713-4.613-.535-7.304c.179-2.691 1.785-4.998 3.035-5.96" stroke="#48494D" stroke-width="1.5" stroke-linecap="round" stroke-linejoin="round"/><rect x=".498" y="20.506" width="13.445" height=".996" rx=".498" fill="#48494D" stroke="#48494D" stroke-width=".996"/><path d="M20.418 5.478v0A1.893 1.893 0 0121.853 7.5l-.085.874A1.756 1.756 0 0120.02 9.96v0" stroke="#48494D" stroke-width="1.5"/></svg>
